apps/22/preferences-desktop-accessibility.svg

<?xml version="1.0" encoding="UTF-8" standalone="no"?>
<!-- Created with Inkscape (http://www.inkscape.org/) -->

<svg
   xmlns:dc="http://purl.org/dc/elements/1.1/"
   xmlns:cc="http://creativecommons.org/ns#"
   xmlns:rdf="http://www.w3.org/1999/02/22-rdf-syntax-ns#"
   xmlns:svg="http://www.w3.org/2000/svg"
   xmlns="http://www.w3.org/2000/svg"
   xmlns:inkscape="http://www.inkscape.org/namespaces/inkscape"
   version="1.1"
   width="22"
   height="22"
   id="svg7384">
  <title
     id="title9167">Gnome Symbolic Icon Theme</title>
  <defs
     id="defs11" />
  <metadata
     id="metadata90">
    <rdf:RDF>
      <cc:Work
         rdf:about="">
        <dc:format>image/svg+xml</dc:format>
        <dc:type
           rdf:resource="http://purl.org/dc/dcmitype/StillImage" />
        <dc:title>Gnome Symbolic Icon Theme</dc:title>
      </cc:Work>
    </rdf:RDF>
  </metadata>
  <path
     d="m 11,3 c -4.9705629,0 -9,4.0294374 -9,9 0,4.970563 4.0294371,9 9,9 4.970563,0 9,-4.029437 9,-9 0,-4.9705626 -4.029437,-9 -9,-9 z m 0,2 c 3.865993,0 7,3.1340062 7,7 0,3.865993 -3.134007,7 -7,7 C 7.1340068,19 4,15.865993 4,12 4,8.1340062 7.1340068,5 11,5 z m 0.0625,1.5 c -0.713022,0 -1.28125,0.5547082 -1.28125,1.25 0,0.695291 0.568228,1.28125 1.28125,1.28125 0.713022,0 1.28125,-0.585959 1.28125,-1.28125 0,-0.6952918 -0.568228,-1.25 -1.28125,-1.25 z M 6.40625,9.09375 C 6.33635,9.08515 6.2821301,9.09525 6.21875,9.125 6.09199,9.184567 6.0017477,9.303153 6,9.4375 5.9984,9.571866 6.0935658,9.687478 6.21875,9.75 L 9.65625,10.8125 9.625,13.28125 8.40625,16.9375 C 8.2893824,17.104044 8.324703,17.295219 8.5,17.40625 8.6753044,17.517298 8.94562,17.479058 9.0625,17.3125 L 11,13.375 l 1.9375,3.9375 c 0.103888,0.172743 0.318204,0.223706 0.5,0.125 0.181797,-0.09871 0.260134,-0.296006 0.15625,-0.46875 L 12.40625,13.28125 12.34375,11 l 3.5,-1.25 C 15.984644,9.65612 16.029775,9.465353 15.96875,9.3125 15.90772,9.15963 15.73347,9.075227 15.5625,9.09375 15.50276,9.10315 15.454633,9.12164 15.40625,9.15625 L 11,9.84375 6.625,9.15625 C 6.568278,9.11613 6.4761498,9.10234 6.40625,9.09375 z"
     inkscape:connector-curvature="0"
     id="path3009-5"
     style="opacity:0.4;color:#bebebe;fill:#000000;fill-opacity:1;fill-rule:nonzero;stroke:none;stroke-width:1;marker:none;visibility:visible;display:inline;overflow:visible;enable-background:accumulate" />
  <path
     d="m 11,2 c -4.9705629,0 -9,4.0294374 -9,9 0,4.970563 4.0294371,9 9,9 4.970563,0 9,-4.029437 9,-9 0,-4.9705626 -4.029437,-9 -9,-9 z m 0,2 c 3.865993,0 7,3.1340062 7,7 0,3.865993 -3.134007,7 -7,7 C 7.1340068,18 4,14.865993 4,11 4,7.1340062 7.1340068,4 11,4 z m 0.0625,1.5 c -0.713022,0 -1.28125,0.5547082 -1.28125,1.25 0,0.695291 0.568228,1.28125 1.28125,1.28125 0.713022,0 1.28125,-0.585959 1.28125,-1.28125 0,-0.6952918 -0.568228,-1.25 -1.28125,-1.25 z M 6.40625,8.09375 C 6.33635,8.08515 6.2821301,8.09525 6.21875,8.125 6.09199,8.184567 6.0017477,8.303153 6,8.4375 5.9984,8.571866 6.0935658,8.687478 6.21875,8.75 L 9.65625,9.8125 9.625,12.28125 8.40625,15.9375 C 8.2893824,16.104044 8.324703,16.295219 8.5,16.40625 8.6753044,16.517298 8.94562,16.479058 9.0625,16.3125 L 11,12.375 l 1.9375,3.9375 c 0.103888,0.172743 0.318204,0.223706 0.5,0.125 0.181797,-0.09871 0.260134,-0.296006 0.15625,-0.46875 L 12.40625,12.28125 12.34375,10 l 3.5,-1.25 C 15.984644,8.65612 16.029775,8.465353 15.96875,8.3125 15.90772,8.15963 15.73347,8.075227 15.5625,8.09375 15.50276,8.10315 15.454633,8.12164 15.40625,8.15625 L 11,8.84375 6.625,8.15625 C 6.568278,8.11613 6.4761498,8.10234 6.40625,8.09375 z"
     inkscape:connector-curvature="0"
     id="path3009"
     style="color:#bebebe;fill:#ffffff;fill-opacity:1;fill-rule:nonzero;stroke:none;stroke-width:1;marker:none;visibility:visible;display:inline;overflow:visible;enable-background:accumulate" />
</svg>

<?xml version="1.0" encoding="UTF-8" standalone="no"?>
<!-- Created with Inkscape (http://www.inkscape.org/) -->

<svg
   xmlns:dc="http://purl.org/dc/elements/1.1/"
   xmlns:cc="http://creativecommons.org/ns#"
   xmlns:rdf="http://www.w3.org/1999/02/22-rdf-syntax-ns#"
   xmlns:svg="http://www.w3.org/2000/svg"
   xmlns="http://www.w3.org/2000/svg"
   xmlns:sodipodi="http://sodipodi.sourceforge.net/DTD/sodipodi-0.dtd"
   xmlns:inkscape="http://www.inkscape.org/namespaces/inkscape"
   version="1.1"
   width="22"
   height="22"
   id="svg7384"
   inkscape:version="0.48.3.1 r9886"
   sodipodi:docname="preferences-desktop-accessibility.svg">
  <sodipodi:namedview
     pagecolor="#ffffff"
     bordercolor="#666666"
     borderopacity="1"
     objecttolerance="10"
     gridtolerance="10"
     guidetolerance="10"
     inkscape:pageopacity="0"
     inkscape:pageshadow="2"
     inkscape:window-width="1280"
     inkscape:window-height="752"
     id="namedview7"
     showgrid="true"
     inkscape:zoom="17.40625"
     inkscape:cx="13.472215"
     inkscape:cy="13.848818"
     inkscape:window-x="0"
     inkscape:window-y="26"
     inkscape:window-maximized="1"
     inkscape:current-layer="svg7384"
     showborder="true">
    <inkscape:grid
       type="xygrid"
       id="grid2996"
       empspacing="5"
       visible="true"
       enabled="true"
       snapvisiblegridlinesonly="true" />
  </sodipodi:namedview>
  <title
     id="title9167">Gnome Symbolic Icon Theme</title>
  <defs
     id="defs11" />
  <metadata
     id="metadata90">
    <rdf:RDF>
      <cc:Work
         rdf:about="">
        <dc:format>image/svg+xml</dc:format>
        <dc:type
           rdf:resource="http://purl.org/dc/dcmitype/StillImage" />
        <dc:title>Gnome Symbolic Icon Theme</dc:title>
      </cc:Work>
    </rdf:RDF>
  </metadata>
  <path
     style="color:#bebebe;fill:#000000;fill-opacity:1;fill-rule:nonzero;stroke:none;stroke-width:1;marker:none;visibility:visible;display:inline;overflow:visible;enable-background:accumulate;opacity:0.4"
     d="m 11,3 c -4.9705629,0 -9,4.0294374 -9,9 0,4.970563 4.0294371,9 9,9 4.970563,0 9,-4.029437 9,-9 0,-4.9705626 -4.029437,-9 -9,-9 z m 0,2 c 3.865993,0 7,3.1340062 7,7 0,3.865993 -3.134007,7 -7,7 C 7.1340068,19 4,15.865993 4,12 4,8.1340062 7.1340068,5 11,5 z m 0.0625,1.5 c -0.713022,0 -1.28125,0.5547082 -1.28125,1.25 0,0.695291 0.568228,1.28125 1.28125,1.28125 0.713022,0 1.28125,-0.585959 1.28125,-1.28125 0,-0.6952918 -0.568228,-1.25 -1.28125,-1.25 z M 6.40625,9.09375 C 6.33635,9.08515 6.2821301,9.09525 6.21875,9.125 6.09199,9.184567 6.0017477,9.303153 6,9.4375 5.9984,9.571866 6.0935658,9.687478 6.21875,9.75 L 9.65625,10.8125 9.625,13.28125 8.40625,16.9375 C 8.2893824,17.104044 8.324703,17.295219 8.5,17.40625 8.6753044,17.517298 8.94562,17.479058 9.0625,17.3125 L 11,13.375 l 1.9375,3.9375 c 0.103888,0.172743 0.318204,0.223706 0.5,0.125 0.181797,-0.09871 0.260134,-0.296006 0.15625,-0.46875 L 12.40625,13.28125 12.34375,11 l 3.5,-1.25 C 15.984644,9.65612 16.029775,9.465353 15.96875,9.3125 15.90772,9.15963 15.73347,9.075227 15.5625,9.09375 15.50276,9.10315 15.454633,9.12164 15.40625,9.15625 L 11,9.84375 6.625,9.15625 C 6.568278,9.11613 6.4761498,9.10234 6.40625,9.09375 z"
     id="path3009-5"
     inkscape:connector-curvature="0" />
  <path
     style="color:#bebebe;fill:#ffffff;fill-opacity:1;fill-rule:nonzero;stroke:none;stroke-width:1;marker:none;visibility:visible;display:inline;overflow:visible;enable-background:accumulate"
     d="M 11 2 C 6.0294371 2 2 6.0294374 2 11 C 2 15.970563 6.0294371 20 11 20 C 15.970563 20 20 15.970563 20 11 C 20 6.0294374 15.970563 2 11 2 z M 11 4 C 14.865993 4 18 7.1340062 18 11 C 18 14.865993 14.865993 18 11 18 C 7.1340068 18 4 14.865993 4 11 C 4 7.1340062 7.1340068 4 11 4 z M 11.0625 5.5 C 10.349478 5.5 9.78125 6.0547082 9.78125 6.75 C 9.78125 7.445291 10.349478 8.03125 11.0625 8.03125 C 11.775522 8.03125 12.34375 7.445291 12.34375 6.75 C 12.34375 6.0547082 11.775522 5.5 11.0625 5.5 z M 6.40625 8.09375 C 6.33635 8.08515 6.2821301 8.09525 6.21875 8.125 C 6.09199 8.184567 6.0017477 8.303153 6 8.4375 C 5.9984 8.571866 6.0935658 8.687478 6.21875 8.75 L 9.65625 9.8125 L 9.625 12.28125 L 8.40625 15.9375 C 8.2893824 16.104044 8.324703 16.295219 8.5 16.40625 C 8.6753044 16.517298 8.94562 16.479058 9.0625 16.3125 L 11 12.375 L 12.9375 16.3125 C 13.041388 16.485243 13.255704 16.536206 13.4375 16.4375 C 13.619297 16.33879 13.697634 16.141494 13.59375 15.96875 L 12.40625 12.28125 L 12.34375 10 L 15.84375 8.75 C 15.984644 8.65612 16.029775 8.465353 15.96875 8.3125 C 15.90772 8.15963 15.73347 8.075227 15.5625 8.09375 C 15.50276 8.10315 15.454633 8.12164 15.40625 8.15625 L 11 8.84375 L 6.625 8.15625 C 6.568278 8.11613 6.4761498 8.10234 6.40625 8.09375 z "
     id="path3009" />
</svg>
